img/icon2.svg

<svg width="40" height="40" viewBox="0 0 40 40" fill="none" xmlns="http://www.w3.org/2000/svg">
<g clip-path="url(#clip0)">
<path d="M7.85156 28.5547C8.17536 28.5547 8.4375 28.2922 8.4375 27.9688V22.3438C8.4375 22.0203 8.17536 21.7578 7.85156 21.7578C7.52777 21.7578 7.26562 22.0203 7.26562 22.3438V27.9688C7.26562 28.2922 7.52777 28.5547 7.85156 28.5547Z" fill="#FCDB50"/>
<path d="M11.0547 28.5547C11.3785 28.5547 11.6407 28.2922 11.6407 27.9688V22.3438C11.6407 22.0203 11.3785 21.7578 11.0547 21.7578C10.7309 21.7578 10.4688 22.0203 10.4688 22.3438V27.9688C10.4688 28.2922 10.7309 28.5547 11.0547 28.5547Z" fill="#FCDB50"/>
<path d="M14.1797 28.5547C14.5035 28.5547 14.7657 28.2922 14.7657 27.9688V22.3438C14.7657 22.0203 14.5035 21.7578 14.1797 21.7578C13.8559 21.7578 13.5938 22.0203 13.5938 22.3438V27.9688C13.5938 28.2922 13.8559 28.5547 14.1797 28.5547Z" fill="#FCDB50"/>
<path d="M17.3828 25.7422C17.7066 25.7422 17.9688 25.4798 17.9688 25.1563V22.3438C17.9688 22.0203 17.7066 21.7578 17.3828 21.7578C17.0591 21.7578 16.7969 22.0203 16.7969 22.3438V25.1563C16.7969 25.4798 17.0591 25.7422 17.3828 25.7422Z" fill="#FCDB50"/>
<path d="M38.1641 8.67185H36.9923C36.6685 8.67185 36.4063 8.9343 36.4063 9.25779C36.4063 9.58128 36.6685 9.84373 36.9923 9.84373H38.1641C38.4873 9.84373 38.7501 10.1065 38.7501 10.4297V34.4141C38.7501 34.7373 38.4873 35 38.1641 35H34.7431C34.8081 34.8166 34.8438 34.6195 34.8438 34.4141V32.4219C34.8438 32.0984 34.5817 31.8359 34.2579 31.8359C33.9341 31.8359 33.6719 32.0984 33.6719 32.4219V34.4141C33.6719 34.7373 33.4092 35 33.086 35H14.433C14.5212 34.7827 14.5703 34.5453 14.5703 34.2969C14.5703 33.4677 14.029 32.7628 13.2813 32.5162V31.25H14.3576C15.0959 31.25 15.8014 30.9744 16.3437 30.4739L21.9471 25.3064C22.5467 24.7534 22.8907 23.9685 22.8907 23.1528V20.8984C22.8907 20.1446 22.2773 19.5312 21.5235 19.5312H10.4688V5.58591C10.4688 5.26273 10.7315 4.99997 11.0547 4.99997H33.086C33.4092 4.99997 33.6719 5.26273 33.6719 5.58591V29.6875C33.6719 30.011 33.9341 30.2734 34.2579 30.2734C34.5817 30.2734 34.8438 30.011 34.8438 29.6875V5.58591C34.8438 4.61667 34.0552 3.82809 33.086 3.82809H11.0547C10.0855 3.82809 9.29689 4.61667 9.29689 5.58591V19.5312H5.15626V16.3672C5.15626 15.3979 4.36768 14.6094 3.39844 14.6094H1.67969C0.710451 14.6094 -0.078125 15.3979 -0.078125 16.3672C-0.078125 17.3364 0.710451 18.125 1.67969 18.125H3.98438V29.8828C3.98438 30.5969 4.53523 31.1844 5.23438 31.2439V32.5162C4.4867 32.7628 3.94532 33.4677 3.94532 34.2969C3.94532 35.3308 4.78639 36.1719 5.82032 36.1719C6.64949 36.1719 7.35444 35.6305 7.60103 34.8828H10.9146C11.1612 35.6305 11.8662 36.1719 12.6953 36.1719H38.1641C39.1334 36.1719 39.9219 35.3833 39.9219 34.4141V10.4297C39.9219 9.46043 39.1334 8.67185 38.1641 8.67185ZM12.1094 32.5162C11.546 32.702 11.1005 33.1476 10.9146 33.711H7.60103C7.41517 33.1476 6.96962 32.702 6.40626 32.5162V31.25H12.1094V32.5162ZM1.09375 16.3672C1.09375 16.044 1.35651 15.7812 1.67969 15.7812H3.39844C3.72163 15.7812 3.98438 16.044 3.98438 16.3672V16.9531H1.67969C1.35651 16.9531 1.09375 16.6904 1.09375 16.3672ZM5.15626 29.8828V20.7031H21.5235C21.6312 20.7031 21.7188 20.7907 21.7188 20.8984V23.1528C21.7188 23.6423 21.5125 24.1132 21.1527 24.4452L15.5493 29.6124C15.2237 29.9127 14.8004 30.0781 14.3576 30.0781H5.35157C5.24384 30.0781 5.15626 29.9905 5.15626 29.8828ZM5.82032 35C5.43244 35 5.1172 34.6845 5.1172 34.2969C5.1172 33.9093 5.43244 33.5938 5.82032 33.5938C6.2082 33.5938 6.52345 33.9093 6.52345 34.2969C6.52345 34.6845 6.2082 35 5.82032 35ZM12.6953 33.5938C13.0832 33.5938 13.3985 33.9093 13.3985 34.2969C13.3985 34.6845 13.0832 35 12.6953 35C12.3075 35 11.9922 34.6845 11.9922 34.2969C11.9922 33.9093 12.3075 33.5938 12.6953 33.5938Z" fill="white"/>
<path d="M30.5469 14.3359C30.5469 13.5822 29.9335 12.9688 29.1797 12.9688H27.6954C26.9416 12.9688 26.3282 13.5822 26.3282 14.3359V15.8203C26.3282 16.5741 26.9416 17.1875 27.6954 17.1875H29.1797C29.9335 17.1875 30.5469 16.5741 30.5469 15.8203V14.3359ZM29.3751 15.8203C29.3751 15.928 29.2875 16.0156 29.1797 16.0156H27.6954C27.5876 16.0156 27.5001 15.928 27.5001 15.8203V14.3359C27.5001 14.2282 27.5876 14.1406 27.6954 14.1406H29.1797C29.2875 14.1406 29.3751 14.2282 29.3751 14.3359V15.8203Z" fill="#FCDB50"/>
<path d="M30.5469 20.8984C30.5469 20.1447 29.9335 19.5312 29.1797 19.5312H27.6954C26.9416 19.5312 26.3282 20.1447 26.3282 20.8984V22.3828C26.3282 23.1366 26.9416 23.75 27.6954 23.75H29.1797C29.9335 23.75 30.5469 23.1366 30.5469 22.3828V20.8984ZM29.3751 22.3828C29.3751 22.4905 29.2875 22.5781 29.1797 22.5781H27.6954C27.5876 22.5781 27.5001 22.4905 27.5001 22.3828V20.8984C27.5001 20.7907 27.5876 20.7031 27.6954 20.7031H29.1797C29.2875 20.7031 29.3751 20.7907 29.3751 20.8984V22.3828Z" fill="#FCDB50"/>
<path d="M29.1797 26.0938H27.6954C26.9416 26.0938 26.3282 26.7072 26.3282 27.461V28.9453C26.3282 29.6991 26.9416 30.3125 27.6954 30.3125H29.1797C29.9335 30.3125 30.5469 29.6991 30.5469 28.9453V27.461C30.5469 26.7072 29.9335 26.0938 29.1797 26.0938ZM29.3751 28.9453C29.3751 29.0531 29.2875 29.1407 29.1797 29.1407H27.6954C27.5876 29.1407 27.5001 29.0531 27.5001 28.9453V27.461C27.5001 27.3532 27.5876 27.2657 27.6954 27.2657H29.1797C29.2875 27.2657 29.3751 27.3532 29.3751 27.461V28.9453Z" fill="#FCDB50"/>
<path d="M24.1407 13.3203H14.1407C13.8169 13.3203 13.5547 13.5828 13.5547 13.9063C13.5547 14.2297 13.8169 14.4922 14.1407 14.4922H24.1407C24.4645 14.4922 24.7266 14.2297 24.7266 13.9063C24.7266 13.5828 24.4645 13.3203 24.1407 13.3203Z" fill="#FCDB50"/>
<path d="M14.1407 15.6641C13.8169 15.6641 13.5547 15.9265 13.5547 16.25C13.5547 16.5735 13.8169 16.8359 14.1407 16.8359H17.2916C17.6154 16.8359 17.8776 16.5735 17.8776 16.25C17.8776 15.9265 17.6154 15.6641 17.2916 15.6641H14.1407Z" fill="#FCDB50"/>
<path d="M19.6353 15.6641C19.3119 15.6641 19.0494 15.9265 19.0494 16.25C19.0494 16.5735 19.3119 16.8359 19.6353 16.8359H21.7969C22.1207 16.8359 22.3828 16.5735 22.3828 16.25C22.3828 15.9265 22.1207 15.6641 21.7969 15.6641H19.6353Z" fill="#FCDB50"/>
<path d="M24.1407 26.4453H22.8125C22.4887 26.4453 22.2266 26.7078 22.2266 27.0313C22.2266 27.3548 22.4887 27.6172 22.8125 27.6172H24.1407C24.4645 27.6172 24.7266 27.3548 24.7266 27.0313C24.7266 26.7078 24.4645 26.4453 24.1407 26.4453Z" fill="#FCDB50"/>
<path d="M24.1407 28.7891H20.8594C20.5356 28.7891 20.2735 29.0515 20.2735 29.375C20.2735 29.6985 20.5356 29.9609 20.8594 29.9609H24.1407C24.4644 29.9609 24.7266 29.6985 24.7266 29.375C24.7266 29.0515 24.4644 28.7891 24.1407 28.7891Z" fill="#FCDB50"/>
</g>
<defs>
<clipPath id="clip0">
<rect width="40" height="40" fill="white"/>
</clipPath>
</defs>
</svg>

<svg width="40" height="40" fill="none" xmlns="http://www.w3.org/2000/svg"><g clip-path="url(#clip0)"><path d="M7.852 28.555a.586.586 0 00.585-.586v-5.625a.586.586 0 10-1.171 0v5.625c0 .323.262.586.586.586zm3.203 0a.586.586 0 00.586-.586v-5.625a.586.586 0 10-1.172 0v5.625c0 .323.262.586.586.586zm3.125 0a.586.586 0 00.586-.586v-5.625a.586.586 0 10-1.172 0v5.625c0 .323.262.586.586.586zm3.203-2.813a.586.586 0 00.586-.586v-2.812a.586.586 0 10-1.172 0v2.812c0 .324.262.586.586.586z" fill="#FCDB50"/><path d="M38.164 8.672h-1.172a.586.586 0 100 1.172h1.172c.323 0 .586.263.586.586v23.984a.586.586 0 01-.586.586h-3.42c.064-.183.1-.38.1-.586v-1.992a.586.586 0 10-1.172 0v1.992a.586.586 0 01-.586.586H14.433a1.878 1.878 0 00-1.152-2.484V31.25h1.077a2.92 2.92 0 001.986-.776l5.603-5.168c.6-.553.944-1.338.944-2.153v-2.255a1.37 1.37 0 00-1.367-1.367H10.468V5.586c0-.323.263-.586.586-.586h22.031c.323 0 .586.263.586.586v24.102a.586.586 0 001.172 0V5.585a1.76 1.76 0 00-1.758-1.758h-22.03a1.76 1.76 0 00-1.758 1.758V19.53h-4.14v-3.164a1.76 1.76 0 00-1.759-1.758H1.68a1.76 1.76 0 00-1.758 1.758c0 .97.788 1.758 1.758 1.758h2.304v11.758c0 .714.551 1.301 1.25 1.36v1.273a1.878 1.878 0 00-1.289 1.78c0 1.035.841 1.876 1.875 1.876.83 0 1.534-.541 1.781-1.29h3.314c.246.748.951 1.29 1.78 1.29h25.47a1.76 1.76 0 001.757-1.758V10.43a1.76 1.76 0 00-1.758-1.758zM12.11 32.516a1.883 1.883 0 00-1.194 1.195H7.6a1.882 1.882 0 00-1.195-1.195V31.25h5.703v1.266zM1.094 16.367c0-.323.263-.586.586-.586h1.718c.324 0 .586.263.586.586v.586H1.68a.586.586 0 01-.586-.586zm4.062 13.516v-9.18h16.367c.108 0 .196.088.196.195v2.255c0 .49-.207.96-.566 1.292l-5.604 5.167c-.325.3-.749.466-1.191.466H5.352a.195.195 0 01-.196-.195zM5.82 35a.704.704 0 11.002-1.408A.704.704 0 015.82 35zm6.875-1.406a.704.704 0 11-.001 1.408.704.704 0 01.001-1.408z" fill="#fff"/><path d="M30.547 14.336c0-.754-.614-1.367-1.367-1.367h-1.485c-.753 0-1.367.613-1.367 1.367v1.484c0 .754.614 1.367 1.367 1.367h1.485c.753 0 1.367-.613 1.367-1.367v-1.484zm-1.172 1.484a.196.196 0 01-.195.196h-1.485a.195.195 0 01-.195-.196v-1.484c0-.108.088-.195.195-.195h1.485c.108 0 .195.087.195.195v1.484zm1.172 5.078a1.37 1.37 0 00-1.367-1.367h-1.485a1.37 1.37 0 00-1.367 1.367v1.485c0 .754.614 1.367 1.367 1.367h1.485c.753 0 1.367-.613 1.367-1.367v-1.485zm-1.172 1.485a.196.196 0 01-.195.195h-1.485a.195.195 0 01-.195-.195v-1.485c0-.107.088-.195.195-.195h1.485c.108 0 .195.088.195.195v1.485zm-.195 3.711h-1.485c-.753 0-1.367.613-1.367 1.367v1.484c0 .754.614 1.367 1.367 1.367h1.485c.753 0 1.367-.613 1.367-1.367v-1.484c0-.754-.614-1.367-1.367-1.367zm.195 2.851a.196.196 0 01-.195.196h-1.485a.195.195 0 01-.195-.196v-1.484c0-.108.088-.195.195-.195h1.485c.108 0 .195.087.195.195v1.484zM24.14 13.32h-10a.586.586 0 100 1.172h10a.586.586 0 100-1.172zm-10 2.344a.586.586 0 100 1.172h3.152a.586.586 0 100-1.172H14.14zm5.495 0a.586.586 0 000 1.172h2.162a.586.586 0 100-1.172h-2.162zm4.505 10.781h-1.328a.586.586 0 000 1.172h1.329a.586.586 0 100-1.172zm0 2.345h-3.28a.586.586 0 100 1.17h3.28a.586.586 0 100-1.17z" fill="#FCDB50"/></g><defs><clipPath id="clip0"><path fill="#fff" d="M0 0h40v40H0z"/></clipPath></defs></svg>
